X:305
T:Mull of Kintyre
C:Joe Buchanan's Scottish Tome - Page 642.0
I:642 0
Z:Carl Allison
R:Jig
L:1/4
M:3/4
K:G
"G"D>E G | B2 B | "C"B A G | A>G E | "G"D>E G | B2 B | "C"B A G | A G z/ E/ |
"G"D>E A | G3- | G z2 | z3 |] "G"D G>E | D B, z/ D/ | G B A | G3 |
"C"E G F | E/ D>z C/ | "G"D G "C"E | "G"D3 | "G"D G>E | D B, z/ D/ | G B A | G>A B/ (c/ |
"C"c>)B A/ (G/ | G) E z/ D/ | "D7"D>E A | "G"D3- | D3 |] "G"D>E G | B2 B | "C"B A G |
A>G E | "C"D>E G | B2 B | "C"B A G | A G z>E | "G"D>E A | G3- | "G7"G  z2 |
[K:C]"C"G>A c | e2 e | "F"e d c | d<c A | "C"G>A c | e2 e | "F"e d c | d c>A |
"C"G>A d | c3- | c z2 | z3 |] "C"G c>A | G<E z/ G/ | "C"c e d | "C"c3 |
"F"A c B | A G F | "C"G c "F"A | "C"G3 | "C"G c A | G E G | "G7"c e d | "C"c "G7"d "C"e |
"F"f>e d | c A z/ G/ | "G"G>A d | "C"c3- | c z2 | x3 | x3 | x3 |
"C"G>A c | e2 e | "G"d>E G | B3 | x3 | x3 | x3 | x3 |
%
W:Errata: Scattered note value inconsistencies. Hopefully corrected.
